X: 1
M: 3/4
L: 1/8
K: Dm
|: A,2 \
| "Dm"D4 F2 | A4 F2 | "A7"G3 FEF | "Dm"D4 "C7"E2 \
| "F"F4 A2 | c4 A2 | "C7"B3 AG2 | "F"A4 A2 |
| "Dm"d3 ^cde | "Gm"d3 cB/A/G | "A"A3 GFE | "Bb"D4 F2 \
| "Gm"E3 FAG | "A7"F3 EA,^C | "Dm"D6 | D2 z2 :|
|: "C7"E2 \
| "F".F2 zFF2 | F4 A2 | "C7".c2 zcc2 | "F"c4 A2 \
| "A7".G2 zGG2 | G2 A2 G2 | "D".F2 zFF2 | F4 E2 |
| "Bb".D2 zDD2 | D4 F2 | "F".A2 zAA2 | A4 F2 \
| "A7".E2 zEE2 | E2 F2 E2 | "D"D6 | D2 z2 :|
